svg/cloud_refresh_variant.svg

<svg xmlns="http://www.w3.org/2000/svg" viewBox="0 0 24 24"><path d="M21.86 12.5A4.3 4.3 0 0 0 19 11c0-1.95-.68-3.6-2.04-4.96S13.95 4 12 4c-1.58 0-3 .47-4.25 1.43s-2.08 2.19-2.5 3.72c-1.25.28-2.29.93-3.08 1.95S1 13.28 1 14.58c0 1.51.54 2.8 1.61 3.85C3.69 19.5 5 20 6.5 20h12c1.25 0 2.31-.44 3.19-1.31.87-.88 1.31-1.94 1.31-3.19q0-1.725-1.14-3M16 13h-4l1.77-1.77A2.5 2.5 0 1 0 14 14.5h1.71A3.99 3.99 0 0 1 12 17c-2.21 0-4-1.79-4-4s1.79-4 4-4c1.11 0 2.11.45 2.83 1.17L16 9z"/></svg>

<svg xmlns="http://www.w3.org/2000/svg" id="mdi-cloud-refresh-variant" viewBox="0 0 24 24"><path d="M21.86 12.5C21.1 11.63 20.15 11.13 19 11C19 9.05 18.32 7.4 16.96 6.04C15.6 4.68 13.95 4 12 4C10.42 4 9 4.47 7.75 5.43S5.67 7.62 5.25 9.15C4 9.43 2.96 10.08 2.17 11.1S1 13.28 1 14.58C1 16.09 1.54 17.38 2.61 18.43C3.69 19.5 5 20 6.5 20H18.5C19.75 20 20.81 19.56 21.69 18.69C22.56 17.81 23 16.75 23 15.5C23 14.35 22.62 13.35 21.86 12.5M16 13H12L13.77 11.23C13.32 10.78 12.69 10.5 12 10.5C10.62 10.5 9.5 11.62 9.5 13S10.62 15.5 12 15.5C12.82 15.5 13.54 15.11 14 14.5H15.71C15.12 15.97 13.68 17 12 17C9.79 17 8 15.21 8 13S9.79 9 12 9C13.11 9 14.11 9.45 14.83 10.17L16 9V13Z" /></svg>
